X:1
T:Batchellor, LM
T:Daniel J. Batchellor
T:Batchellor, LM
T:Public Domain
C:Daniel J. Batchellor
Z:Public Domain
%%score ( 1 2 ) ( 3 4 )
L:1/8
M:4/2
K:Ab
V:1 treble 
V:2 treble 
V:3 bass 
V:4 bass 
V:1
 [CE]4 [=B,=D]2 [CE]2 [_DF]4 [CE]4 | [Ec]4 ([FA]2 [DF]2) [CE]8 | [CE]4 [CE]2 [CE]2 [DF]4 [DA]4 | %3
 (G2 A2) (B2 c2) [EB]8 | [CE]4 [=B,=D]2 [CE]2 [_DF]4 [CE]4 | [Ec]4 ([FA]2 [DF]2) [CE]8 | %6
 [DF]4 [FA]2 [DF]2 [CE]4 ([CA]2 [Ec]2) | [DB]4 ([CA]2 [B,G]2) [CA]8 |] %8
V:2
 x16 | x16 | x16 | E4 E4 x8 | x16 | x16 | x16 | x16 |] %8
V:3
 [A,,A,]4 [A,,A,]2 [A,,A,]2 [A,,A,]4 [A,,A,]4 | [A,,A,]4 [D,A,]4 [A,,A,]8 | %2
 [A,,A,]4 [A,,A,]2 [A,,A,]2 [D,A,]4 [D,F,]4 | ([D,B,]2 [C,A,]2) ([B,,G,]2 [A,,A,]2) [E,G,]8 | %4
 [A,,A,]4 [A,,A,]2 [A,,A,]2 [A,,A,]4 [A,,A,]4 | [A,,A,]4 [D,A,]4 [A,,A,]8 | %6
 [D,A,]4 [D,A,]2 [D,A,]2 [A,,A,]4 [A,,A,]4 | [E,G,]4 E,4 [A,,E,]8 |] %8
V:4
 x16 | x16 | x16 | x16 | x16 | x16 | x16 | x4 E,4 x8 |] %8

